src/assets/icons/watch.svg

<svg width="14" height="14" viewBox="0 0 14 14" fill="none" xmlns="http://www.w3.org/2000/svg">
<path d="M7.07 11.585L7 11.655L6.923 11.585C3.598 8.56801 1.4 6.57301 1.4 4.55001C1.4 3.15001 2.45 2.10001 3.85 2.10001C4.928 2.10001 5.978 2.80001 6.349 3.75201H7.651C8.022 2.80001 9.072 2.10001 10.15 2.10001C11.55 2.10001 12.6 3.15001 12.6 4.55001C12.6 6.57301 10.402 8.56801 7.07 11.585ZM10.15 0.700012C8.932 0.700012 7.763 1.26701 7 2.15601C6.237 1.26701 5.068 0.700012 3.85 0.700012C1.694 0.700012 0 2.38701 0 4.55001C0 7.18901 2.38 9.35201 5.985 12.621L7 13.545L8.015 12.621C11.62 9.35201 14 7.18901 14 4.55001C14 2.38701 12.306 0.700012 10.15 0.700012Z" fill="#2979FF"/>
</svg>

<svg width="14" height="14" fill="none" xmlns="http://www.w3.org/2000/svg"><path d="m7.07 11.59-.07.06-.08-.06C3.6 8.57 1.4 6.57 1.4 4.55A2.4 2.4 0 0 1 3.85 2.1c1.08 0 2.13.7 2.5 1.65h1.3a2.75 2.75 0 0 1 2.5-1.65 2.4 2.4 0 0 1 2.45 2.45c0 2.02-2.2 4.02-5.53 7.04ZM10.15.7C8.93.7 7.76 1.27 7 2.16A4.21 4.21 0 0 0 3.85.7 3.8 3.8 0 0 0 0 4.55c0 2.64 2.38 4.8 5.99 8.07l1.01.93 1.02-.93C11.62 9.35 14 7.2 14 4.55A3.8 3.8 0 0 0 10.15.7Z" fill="#2979FF"/></svg>
